X: 18382
T: Hungarian Folk Tune
R: reel
M: 4/4
K: Aminor
agfe ^de c2|dddd e2 e2|agfe ^de c2|^G^GcB A2 A2|
|:Gccc Gc c2|dddd e2 e2|agfe ^de c2|^G^GcB A2 A2:|

